communes/5202.svg

<?xml version="1.0" encoding="UTF-8" standalone="no"?>
<svg
   xmlns:dc="http://purl.org/dc/elements/1.1/"
   xmlns:cc="http://creativecommons.org/ns#"
   xmlns:rdf="http://www.w3.org/1999/02/22-rdf-syntax-ns#"
   xmlns:svg="http://www.w3.org/2000/svg"
   xmlns="http://www.w3.org/2000/svg"
   xmlns:xlink="http://www.w3.org/1999/xlink"
   xmlns:sodipodi="http://sodipodi.sourceforge.net/DTD/sodipodi-0.dtd"
   xmlns:inkscape="http://www.inkscape.org/namespaces/inkscape"
   height="763"
   width="603"
   version="1.0"
   id="svg20"
   sodipodi:version="0.32"
   inkscape:version="0.46"
   sodipodi:docname="Monteggio-coat_of_arms.svg"
   sodipodi:docbase="C:\Documents and Settings\Steve\Bureau\Blason Villages Suisse pour Wikipédia (par Delta-9)"
   inkscape:output_extension="org.inkscape.output.svg.inkscape">
  <metadata
     id="metadata31">
    <rdf:RDF>
      <cc:Work
         rdf:about="">
        <dc:format>image/svg+xml</dc:format>
        <dc:type
           rdf:resource="http://purl.org/dc/dcmitype/StillImage" />
        <dc:date>07-AUG-2006</dc:date>
        <dc:creator>
          <cc:Agent>
            <dc:title>Jérôme BLUM (wagner51)</dc:title>
          </cc:Agent>
        </dc:creator>
        <cc:license
           rdf:resource="http://creativecommons.org/licenses/GPL/2.0/" />
        <dc:coverage />
        <dc:description>Gabarit pour le Projet:Blasons de WIkipédia</dc:description>
        <dc:subject>
          <rdf:Bag>
            <rdf:li>blason suisse modèle gabarit projet blasons</rdf:li>
          </rdf:Bag>
        </dc:subject>
        <dc:language>fr</dc:language>
        <dc:title>Gabrit d'un blason suisse</dc:title>
      </cc:Work>
      <cc:License
         rdf:about="http://creativecommons.org/licenses/GPL/2.0/">
        <cc:permits
           rdf:resource="http://web.resource.org/cc/Reproduction" />
        <cc:permits
           rdf:resource="http://web.resource.org/cc/Distribution" />
        <cc:requires
           rdf:resource="http://web.resource.org/cc/Notice" />
        <cc:permits
           rdf:resource="http://web.resource.org/cc/DerivativeWorks" />
        <cc:requires
           rdf:resource="http://web.resource.org/cc/ShareAlike" />
        <cc:requires
           rdf:resource="http://web.resource.org/cc/SourceCode" />
      </cc:License>
    </rdf:RDF>
  </metadata>
  <defs
     id="defs29"><inkscape:perspective
   sodipodi:type="inkscape:persp3d"
   inkscape:vp_x="0 : 381.5 : 1"
   inkscape:vp_y="0 : 1000 : 0"
   inkscape:vp_z="603 : 381.5 : 1"
   inkscape:persp3d-origin="301.5 : 254.33333 : 1"
   id="perspective28" />
<linearGradient
   id="linearGradient2893">
  <stop
     style="stop-color:#ffffff;stop-opacity:0.3137255;"
     offset="0"
     id="stop2895" />
  <stop
     id="stop2897"
     offset="0.19"
     style="stop-color:#ffffff;stop-opacity:0.25098041;" />
  <stop
     style="stop-color:#6b6b6b;stop-opacity:0.1254902;"
     offset="0.60000002"
     id="stop2901" />
  <stop
     style="stop-color:#000000;stop-opacity:0.1254902;"
     offset="1"
     id="stop2899" />
</linearGradient>
<linearGradient
   id="linearGradient2955">
  <stop
     style="stop-color:white;stop-opacity:0;"
     offset="0"
     id="stop2965" />
  <stop
     style="stop-color:black;stop-opacity:0.64583331;"
     offset="1"
     id="stop2959" />
</linearGradient>
<radialGradient
   inkscape:collect="always"
   xlink:href="#linearGradient2893"
   id="radialGradient3236"
   gradientUnits="userSpaceOnUse"
   gradientTransform="matrix(1.215027,1.531577e-24,1.464684e-23,1.266667,-839.1924,-490.4894)"
   cx="858.04236"
   cy="579.93323"
   fx="858.04236"
   fy="579.93323"
   r="300" />
<inkscape:perspective
   id="perspective2511"
   inkscape:persp3d-origin="306 : 264 : 1"
   inkscape:vp_z="612 : 396 : 1"
   inkscape:vp_y="0 : 1000 : 0"
   inkscape:vp_x="0 : 396 : 1"
   sodipodi:type="inkscape:persp3d" />

	
	
	
	
	
	
	
	

	
	
	
</defs>
  <sodipodi:namedview
     inkscape:window-height="691"
     inkscape:window-width="939"
     inkscape:pageshadow="2"
     inkscape:pageopacity="0.0"
     guidetolerance="10.0"
     gridtolerance="10.0"
     objecttolerance="10.0"
     borderopacity="1.0"
     bordercolor="#666666"
     pagecolor="#ffffff"
     id="base"
     inkscape:zoom="0.40633675"
     inkscape:cx="339.34507"
     inkscape:cy="331.00052"
     inkscape:window-x="1328"
     inkscape:window-y="106"
     inkscape:current-layer="layer1"
     showgrid="false"
     showguides="true"
     inkscape:guide-bbox="true">
    <sodipodi:guide
       orientation="horizontal"
       position="761.5"
       id="guide1885" />
    <sodipodi:guide
       orientation="vertical"
       position="1.5"
       id="guide1887" />
    <sodipodi:guide
       orientation="horizontal"
       position="1.5"
       id="guide1889" />
    <sodipodi:guide
       orientation="vertical"
       position="601.5"
       id="guide1891" />
    <sodipodi:guide
       orientation="vertical"
       position="301.50081"
       id="guide1893" />
  </sodipodi:namedview>
  <desc
     id="desc22">Coat of Arms of Canton of Freiburg (Fribourg)</desc>
  <g
     inkscape:groupmode="layer"
     id="layer1"
     inkscape:label="Fond écu"
     style="opacity:1"
     sodipodi:insensitive="true">
    <path
       style="opacity:1"
       d="M 1.4999976,1.5000015 L 1.4999976,460.368 C 1.4999976,626.679 135.814,761.5 301.5,761.5 C 467.186,761.5 601.5,626.679 601.5,460.368 L 601.5,1.5000015 L 1.4999976,1.5000015 z"
       id="path2595" />
    <path
       d="M 1.4999976,254.478 L 301.5,492.5 L 601.5,254.478 L 1.4999976,254.478 z M 82.557998,666.21 C 137.296,724.848 215.128,761.5 301.5,761.5 C 387.872,761.5 465.704,724.848 520.442,666.21 L 301.5,492.5 L 82.557998,666.21 z"
       id="path2464"
       style="opacity:1;fill:#e20909" />
    <rect
       height="252.978"
       width="600"
       y="1.5"
       x="1.5"
       id="rect2869"
       style="opacity:1;fill:#fcef3c" />
  </g>
  <g
     inkscape:groupmode="layer"
     id="layer2"
     inkscape:label="Meubles"
     style="opacity:1"
     sodipodi:insensitive="true">
    <line
       id="line2496"
       y2="666.46802"
       x2="520.69897"
       y1="254.47702"
       x1="1.5"
       style="fill:none;stroke:#000000;stroke-width:2" />
    <line
       id="line2498"
       y2="666.21002"
       x2="82.557999"
       y1="254.478"
       x1="601.5"
       style="fill:none;stroke:#000000;stroke-width:2" />
    <path
       d="M 1.4999976,254.477 L 601.5,254.477"
       id="path3814"
       style="fill:none;stroke:#000000;stroke-width:3" />
    <path
       d="M 441.99,226.423 C 439.699,219.36 423.961,214.369 423.961,214.369 C 423.961,214.369 435.455,213.571 435.638,207.895 C 438.366,206.537 442.671,205.544 447.819,208.5 C 447.819,208.5 439.539,194.516 428.553,201.833 C 423.045,202.755 416.039,208.656 411.589,207.914 C 396.328,205.372 373.22,188.991 366.959,184.384 C 366.959,184.384 362.363,185.064 362.363,191.677 L 392.219,206.837 C 392.219,206.837 387.378,206.298 381.461,206.837 C 378.051,207.147 379.296,210.67 382.192,213.707 C 380.13,220.207 391.255,230.235 391.255,230.235 C 388.544,224.564 388.917,220.543 389.78,218.085 C 389.876,218.098 389.968,218.127 390.067,218.134 C 396.523,218.671 405.665,215.983 409.964,215.983 C 418.954,215.983 436.777,238.836 441.46,230.919 C 449.19,234.874 446.695,240.658 446.695,240.658 C 456.722,231.918 446.11,227.665 441.99,226.423 z M 236.031,184.384 C 229.769,188.989 206.662,205.371 191.401,207.914 C 186.951,208.656 179.945,202.752 174.436,201.832 C 163.456,194.517 155.176,208.5 155.176,208.5 C 160.317,205.542 164.627,206.538 167.353,207.894 C 167.537,213.57 179.03,214.368 179.03,214.368 C 179.03,214.368 163.291,219.36 161.002,226.422 C 156.88,227.665 146.273,231.919 156.287,240.657 C 156.287,240.657 153.789,234.873 161.521,230.918 C 166.209,238.835 184.028,215.983 193.017,215.983 C 197.32,215.983 206.464,218.671 212.918,218.133 C 213.012,218.125 213.109,218.096 213.203,218.085 C 214.069,220.542 214.443,224.563 211.73,230.235 C 211.73,230.235 222.851,220.209 220.794,213.708 C 223.689,210.673 224.936,207.148 221.525,206.838 C 215.608,206.299 210.768,206.838 210.768,206.838 L 240.627,191.678 C 240.628,191.678 242.974,184.384 236.031,184.384 z"
       id="path2522"
       style="stroke:#000000;stroke-linecap:round;stroke-linejoin:round" />
    <path
       d="M 232.966,139.118 C 232.966,139.118 232.756,149.015 226.225,157.654 C 226.225,157.654 242.444,157.232 255.081,137.645 C 255.081,137.645 260.135,141.859 251.289,153.652 C 251.289,153.652 263.304,151.047 273.382,142.34 C 269.884,131.772 266.041,121.092 262.559,111.814 C 256.387,114.269 248.609,116.477 238.234,116.477 C 214.873,116.477 179.515,115.227 171.562,105.283 C 167.669,100.416 181.295,60.024002 145.77,60.024002 C 110.245,60.024002 116.07,98.254003 104.89,113.07 C 94.490998,126.849 89.802998,134.484 83.476998,139.349 C 83.476998,139.349 100.997,137.403 116.57,119.396 C 116.57,119.396 118.03,124.263 113.65,132.536 C 113.65,132.536 123.87,128.642 133.117,120.856 C 133.117,120.856 137.496,125.723 135.55,131.076 C 135.55,131.076 148.691,127.669 156.476,117.935 C 156.476,117.935 159.396,122.316 158.422,126.209 C 158.422,126.209 174.483,124.748 182.755,128.642 L 155.501,130.589 C 155.501,130.589 155.246,125.846 154.614,125.003 C 154.614,125.003 146.823,132.376 131.656,136.378 C 131.656,136.378 133.762,126.9 131.656,126.479 C 131.656,126.479 123.442,132.797 108.488,137.643 C 108.488,137.643 112.278,129.639 111.646,128.375 C 111.646,128.375 93.951998,159.338 39.610998,199.356 C 39.610998,199.356 68.676998,199.777 106.59,159.338 C 106.59,159.338 96.059998,183.349 72.257998,201.884 C 72.257998,201.884 93.742998,206.306 133.972,157.652 C 133.972,157.652 124.915,178.294 104.273,196.829 C 104.273,196.829 133.326,192.104 154.402,157.231 C 160.511,147.122 170.832,134.696 170.832,134.696 C 170.832,134.696 169.147,149.228 159.879,159.128 C 159.879,159.128 180.52,150.07 190.419,135.539 C 190.419,135.539 193.578,144.174 180.94,158.707 C 180.94,158.707 198.001,156.813 213.587,137.855 C 213.587,137.855 212.955,147.334 205.373,158.497 C 205.374,158.497 218.433,155.336 232.966,139.118 z M 246.805,176.178 C 241.964,180.482 223.137,176.178 223.137,176.178 L 236.032,184.384 C 242.975,184.384 240.629,191.678 240.629,191.678 L 239.817,204.685 C 239.817,204.685 248.961,190.7 258.105,187.474 C 264.351,185.269 274.442,180.485 282.899,175.664 C 281.586,169.506 279.636,162.325 277.325,154.722 C 273.009,156.181 263.944,160.945 246.805,176.178 z M 356.186,176.18 C 339.048,160.94 329.99,156.174 325.67,154.715 C 323.357,162.321 321.408,169.505 320.095,175.664 C 328.551,180.484 338.642,185.269 344.889,187.474 C 354.035,190.701 363.176,204.685 363.176,204.685 L 362.363,191.678 C 362.363,185.065 366.959,184.385 366.959,184.385 L 379.855,176.18 C 379.854,176.18 361.028,180.482 356.186,176.18 z M 563.388,199.352 C 509.047,159.333 491.354,128.371 491.354,128.371 C 490.722,129.635 494.512,137.638 494.512,137.638 C 479.558,132.794 471.344,126.474 471.344,126.474 C 469.24,126.895 471.344,136.374 471.344,136.374 C 456.177,132.37 448.386,124.999 448.386,124.999 C 447.754,125.842 447.498,130.585 447.498,130.585 L 420.244,128.639 C 428.515,124.746 444.576,126.205 444.576,126.205 C 443.598,122.312 446.523,117.931 446.523,117.931 C 454.306,127.664 467.448,131.072 467.448,131.072 C 465.505,125.718 469.883,120.852 469.883,120.852 C 479.13,128.639 489.349,132.532 489.349,132.532 C 484.97,124.26 486.431,119.392 486.431,119.392 C 502.003,137.398 519.528,139.346 519.528,139.346 C 513.201,134.479 508.507,126.845 498.115,113.066 C 486.929,98.251003 492.761,60.020002 457.236,60.020002 C 421.71,60.020002 435.337,100.412 431.444,105.279 C 423.49,115.221 388.131,116.474 364.767,116.474 C 354.389,116.474 346.613,114.264 340.438,111.808 C 336.959,121.085 333.116,131.766 329.618,142.333 C 339.697,151.042 351.714,153.646 351.714,153.646 C 342.867,141.851 347.922,137.639 347.922,137.639 C 360.559,157.227 376.776,157.647 376.776,157.647 C 370.247,149.012 370.037,139.112 370.037,139.112 C 384.569,155.33 397.628,158.489 397.628,158.489 C 390.046,147.325 389.413,137.848 389.413,137.848 C 404.999,156.805 422.059,158.7 422.059,158.7 C 409.422,144.165 412.58,135.531 412.58,135.531 C 422.476,150.064 443.12,159.12 443.12,159.12 C 433.85,149.221 432.168,134.688 432.168,134.688 C 432.168,134.688 442.489,147.116 448.6,157.224 C 469.675,192.097 498.729,196.822 498.729,196.822 C 478.088,178.286 469.034,157.645 469.034,157.645 C 509.263,206.299 530.748,201.877 530.748,201.877 C 506.946,183.344 496.416,159.332 496.416,159.332 C 534.321,199.772 563.388,199.352 563.388,199.352 z"
       id="path2524"
       style="stroke:#000000;stroke-linecap:round;stroke-linejoin:round" />
    <path
       d="M 339.015,206.52 C 333.584,206.52 309.924,213.925 309.924,188.746 C 309.924,163.566 340.496,88.521003 340.496,88.521003 L 309.787,88.521003 L 317.957,71.899003 C 326.186,80.128003 333.428,81.445003 333.428,81.445003 C 327.171,72.352003 327.832,59.392002 327.832,59.392002 C 339.022,65.317002 345.276,61.696002 345.276,61.696002 C 336.221,55.279002 332.929,46.720002 332.929,46.720002 C 335.073,34.377002 349.222,30.427002 349.222,30.427002 C 349.222,30.427002 343.626,30.427002 331.118,22.199002 C 318.61,13.970002 310.382,20.224002 302.812,23.186002 C 295.242,26.148002 281.74,23.318002 281.74,23.318002 L 280.265,26.971002 L 297.71,35.694002 L 297.71,45.074002 L 294.922,59.402002 L 286.355,67.970003 C 298.227,67.970003 291.482,82.324003 288.016,88.521003 L 262.492,88.521003 C 262.492,88.521003 293.064,163.566 293.064,188.746 C 293.064,213.925 269.404,206.52 263.973,206.52 C 250.149,206.52 238.793,223.306 236.325,232.193 C 236.325,232.193 244.718,221.825 271.872,221.825 C 299.026,221.825 301.491,236.637 301.491,236.637 C 301.491,236.637 303.956,221.825 331.11,221.825 C 358.26,221.825 366.658,232.193 366.658,232.193 C 364.194,223.306 352.839,206.52 339.015,206.52 z M 318.328,29.216002 C 321.41,32.300002 324.237,32.300002 324.237,32.300002 C 324.237,32.300002 311.71,41.165002 310.361,30.501002 C 310.361,30.500002 315.243,26.132002 318.328,29.216002 z"
       id="path2526"
       style="stroke:#000000;stroke-width:3;stroke-linecap:round;stroke-linejoin:round" />
    <path
       d="M 296.234,49.024002 C 296.234,49.024002 292.283,43.758002 277.802,43.758002 C 263.32,43.758002 256.737,49.189002 250.154,45.568002 C 242.191,41.188002 249.332,31.250002 249.332,31.250002 C 249.332,31.250002 233.534,36.022002 239.951,47.378002 C 242.486,51.863002 249.331,53.797002 262.497,50.176002 C 275.663,46.555002 283.563,45.238002 296.234,51.657002 L 296.234,49.024002 z"
       id="path2528"
       style="stroke:#000000;stroke-linecap:round;stroke-linejoin:round" />
    <path
       d="M 263.154,38.326002 C 263.154,38.326002 264.993,22.147002 281.744,23.318002 C 297.109,24.391002 299.854,38.656002 298.043,52.480002 C 298.043,52.480002 294.258,76.508003 274.673,65.317002 C 274.673,65.317002 289.773,68.773003 294.422,52.810002 C 294.422,52.810002 293.846,36.214002 279.94,33.226002 C 266.034,30.237002 263.154,38.326002 263.154,38.326002 z"
       id="path2530"
       style="stroke:#000000;stroke-width:3;stroke-linecap:round;stroke-linejoin:round" />
  </g>
  <g
     inkscape:groupmode="layer"
     id="layer3"
     inkscape:label="Reflet final"
     style="display:inline"
     sodipodi:insensitive="true">
    <path
       style="fill:url(#radialGradient3236);fill-opacity:1"
       d="M 1.5,1.5 L 1.5,460.3679 C 1.5,626.67854 135.81454,761.5 301.49993,761.5 C 467.1854,761.5 601.5,626.67854 601.5,460.3679 L 601.5,1.5 L 1.5,1.5 z "
       id="path2346" />
  </g>
  <g
     inkscape:groupmode="layer"
     id="layer4"
     inkscape:label="Contour final"
     style="display:inline"
     sodipodi:insensitive="true">
    <path
       style="fill:none;fill-opacity:1;stroke:#000000;stroke-width:3;stroke-miterlimit:4;stroke-dasharray:none;stroke-opacity:1"
       d="M 1.5,1.5 L 1.5,460.36794 C 1.5,626.67854 135.81454,761.5 301.49993,761.5 C 467.1854,761.5 601.5,626.67854 601.5,460.36794 L 601.5,1.5 L 1.5,1.5 z "
       id="path3239" />
  </g>
</svg>

<?xml version="1.0" encoding="UTF-8"?>
<svg version="1.0" viewBox="0 0 603 763" xmlns="http://www.w3.org/2000/svg" xmlns:cc="http://creativecommons.org/ns#" xmlns:dc="http://purl.org/dc/elements/1.1/" xmlns:rdf="http://www.w3.org/1999/02/22-rdf-syntax-ns#" xmlns:xlink="http://www.w3.org/1999/xlink">
<metadata>
<rdf:RDF>
<cc:Work rdf:about="">
<dc:format>image/svg+xml</dc:format>
<dc:type rdf:resource="http://purl.org/dc/dcmitype/StillImage"/>
<dc:date>07-AUG-2006</dc:date>
<dc:creator>
<cc:Agent>
<dc:title>Jérôme BLUM (wagner51)</dc:title>
</cc:Agent>
</dc:creator>
<cc:license rdf:resource="http://creativecommons.org/licenses/GPL/2.0/"/>
<dc:coverage/>
<dc:description>Gabarit pour le Projet:Blasons de WIkipédia</dc:description>
<dc:subject>
<rdf:Bag>
<rdf:li>blason suisse modèle gabarit projet blasons</rdf:li>
</rdf:Bag>
</dc:subject>
<dc:language>fr</dc:language>
<dc:title>Gabrit d'un blason suisse</dc:title>
</cc:Work>
<cc:License rdf:about="http://creativecommons.org/licenses/GPL/2.0/">
<cc:permits rdf:resource="http://web.resource.org/cc/Reproduction"/>
<cc:permits rdf:resource="http://web.resource.org/cc/Distribution"/>
<cc:requires rdf:resource="http://web.resource.org/cc/Notice"/>
<cc:permits rdf:resource="http://web.resource.org/cc/DerivativeWorks"/>
<cc:requires rdf:resource="http://web.resource.org/cc/ShareAlike"/>
<cc:requires rdf:resource="http://web.resource.org/cc/SourceCode"/>
</cc:License>
</rdf:RDF>
</metadata>
<defs>
<radialGradient id="a" cx="858.04" cy="579.93" r="300" gradientTransform="matrix(1.215 1.5316e-24 1.4647e-23 1.2667 -839.19 -490.49)" gradientUnits="userSpaceOnUse">
<stop stop-color="#fff" stop-opacity=".31373" offset="0"/>
<stop stop-color="#fff" stop-opacity=".25098" offset=".19"/>
<stop stop-color="#6b6b6b" stop-opacity=".12549" offset=".6"/>
<stop stop-opacity=".12549" offset="1"/>
</radialGradient>
</defs>
<desc>Coat of Arms of Canton of Freiburg (Fribourg)</desc>
<g>
<path d="m1.5 1.5v458.87c0 166.31 134.31 301.13 300 301.13s300-134.82 300-301.13v-458.87h-600z"/>
<path d="m1.5 254.48 300 238.02 300-238.02h-600zm81.058 411.73c54.738 58.638 132.57 95.29 218.94 95.29s164.2-36.652 218.94-95.29l-218.94-173.71-218.94 173.71z" fill="#e20909"/>
<rect x="1.5" y="1.5" width="600" height="252.98" fill="#fcef3c"/>
<line x1="1.5" x2="520.7" y1="254.48" y2="666.47" fill="none" stroke="#000" stroke-width="2"/>
<line x1="601.5" x2="82.558" y1="254.48" y2="666.21" fill="none" stroke="#000" stroke-width="2"/>
<path d="m1.5 254.48h600" fill="none" stroke="#000" stroke-width="3"/>
<path d="m441.99 226.42c-2.291-7.063-18.029-12.054-18.029-12.054s11.494-0.798 11.677-6.474c2.728-1.358 7.033-2.351 12.181 0.605 0 0-8.28-13.984-19.266-6.667-5.508 0.922-12.514 6.823-16.964 6.081-15.261-2.542-38.369-18.923-44.63-23.53 0 0-4.596 0.68-4.596 7.293l29.856 15.16s-4.841-0.539-10.758 0c-3.41 0.31-2.165 3.833 0.731 6.87-2.062 6.5 9.063 16.528 9.063 16.528-2.711-5.671-2.338-9.692-1.475-12.15 0.096 0.013 0.188 0.042 0.287 0.049 6.456 0.537 15.598-2.151 19.897-2.151 8.99 0 26.813 22.853 31.496 14.936 7.73 3.955 5.235 9.739 5.235 9.739 10.027-8.74-0.585-12.993-4.705-14.235zm-205.96-42.039c-6.262 4.605-29.369 20.987-44.63 23.53-4.45 0.742-11.456-5.162-16.965-6.082-10.98-7.315-19.26 6.668-19.26 6.668 5.141-2.958 9.451-1.962 12.177-0.606 0.184 5.676 11.677 6.474 11.677 6.474s-15.739 4.992-18.028 12.054c-4.122 1.243-14.729 5.497-4.715 14.235 0 0-2.498-5.784 5.234-9.739 4.688 7.917 22.507-14.935 31.496-14.935 4.303 0 13.447 2.688 19.901 2.15 0.094-8e-3 0.191-0.037 0.285-0.048 0.866 2.457 1.24 6.478-1.473 12.15 0 0 11.121-10.026 9.064-16.527 2.895-3.035 4.142-6.56 0.731-6.87-5.917-0.539-10.757 0-10.757 0l29.859-15.16c1e-3 0 2.347-7.294-4.596-7.294z" stroke="#000" stroke-linecap="round" stroke-linejoin="round"/>
<path d="m232.97 139.12s-0.21 9.897-6.741 18.536c0 0 16.219-0.422 28.856-20.009 0 0 5.054 4.214-3.792 16.007 0 0 12.015-2.605 22.093-11.312-3.498-10.568-7.341-21.248-10.823-30.526-6.172 2.455-13.95 4.663-24.325 4.663-23.361 0-58.719-1.25-66.672-11.194-3.893-4.867 9.733-45.259-25.792-45.259s-29.7 38.23-40.88 53.046c-10.399 13.779-15.087 21.414-21.413 26.279 0 0 17.52-1.946 33.093-19.953 0 0 1.46 4.867-2.92 13.14 0 0 10.22-3.894 19.467-11.68 0 0 4.379 4.867 2.433 10.22 0 0 13.141-3.407 20.926-13.141 0 0 2.92 4.381 1.946 8.274 0 0 16.061-1.461 24.333 2.433l-27.254 1.947s-0.255-4.743-0.887-5.586c0 0-7.791 7.373-22.958 11.375 0 0 2.106-9.478 0-9.899 0 0-8.214 6.318-23.168 11.164 0 0 3.79-8.004 3.158-9.268 0 0-17.694 30.963-72.035 70.981 0 0 29.066 0.421 66.979-40.018 0 0-10.53 24.011-34.332 42.546 0 0 21.485 4.422 61.714-44.232 0 0-9.057 20.642-29.699 39.177 0 0 29.053-4.725 50.129-39.598 6.109-10.109 16.43-22.535 16.43-22.535s-1.685 14.532-10.953 24.432c0 0 20.641-9.058 30.54-23.589 0 0 3.159 8.635-9.479 23.168 0 0 17.061-1.894 32.647-20.852 0 0-0.632 9.479-8.214 20.642 1e-3 0 13.06-3.161 27.593-19.379zm13.839 37.06c-4.841 4.304-23.668 0-23.668 0l12.895 8.206c6.943 0 4.597 7.294 4.597 7.294l-0.812 13.007s9.144-13.985 18.288-17.211c6.246-2.205 16.337-6.989 24.794-11.81-1.313-6.158-3.263-13.339-5.574-20.942-4.316 1.459-13.381 6.223-30.52 21.456zm109.38 2e-3c-17.138-15.24-26.196-20.006-30.516-21.465-2.313 7.606-4.262 14.79-5.575 20.949 8.456 4.82 18.547 9.605 24.794 11.81 9.146 3.227 18.287 17.211 18.287 17.211l-0.813-13.007c0-6.613 4.596-7.293 4.596-7.293l12.896-8.205c-1e-3 0-18.827 4.302-23.669 0zm207.2 23.172c-54.341-40.019-72.034-70.981-72.034-70.981-0.632 1.264 3.158 9.267 3.158 9.267-14.954-4.844-23.168-11.164-23.168-11.164-2.104 0.421 0 9.9 0 9.9-15.167-4.004-22.958-11.375-22.958-11.375-0.632 0.843-0.888 5.586-0.888 5.586l-27.254-1.946c8.271-3.893 24.332-2.434 24.332-2.434-0.978-3.893 1.947-8.274 1.947-8.274 7.783 9.733 20.925 13.141 20.925 13.141-1.943-5.354 2.435-10.22 2.435-10.22 9.247 7.787 19.466 11.68 19.466 11.68-4.379-8.272-2.918-13.14-2.918-13.14 15.572 18.006 33.097 19.954 33.097 19.954-6.327-4.867-11.021-12.501-21.413-26.28-11.186-14.815-5.354-53.046-40.879-53.046-35.526 0-21.899 40.392-25.792 45.259-7.954 9.942-43.313 11.195-66.677 11.195-10.378 0-18.154-2.21-24.329-4.666-3.479 9.277-7.322 19.958-10.82 30.525 10.079 8.709 22.096 11.313 22.096 11.313-8.847-11.795-3.792-16.007-3.792-16.007 12.637 19.588 28.854 20.008 28.854 20.008-6.529-8.635-6.739-18.535-6.739-18.535 14.532 16.218 27.591 19.377 27.591 19.377-7.582-11.164-8.215-20.641-8.215-20.641 15.586 18.957 32.646 20.852 32.646 20.852-12.637-14.535-9.479-23.169-9.479-23.169 9.896 14.533 30.54 23.589 30.54 23.589-9.27-9.899-10.952-24.432-10.952-24.432s10.321 12.428 16.432 22.536c21.075 34.873 50.129 39.598 50.129 39.598-20.641-18.536-29.695-39.177-29.695-39.177 40.229 48.654 61.714 44.232 61.714 44.232-23.802-18.533-34.332-42.545-34.332-42.545 37.905 40.44 66.972 40.02 66.972 40.02z" stroke="#000" stroke-linecap="round" stroke-linejoin="round"/>
<path d="m339.02 206.52c-5.431 0-29.091 7.405-29.091-17.774 0-25.18 30.572-100.22 30.572-100.22h-30.709l8.17-16.622c8.229 8.229 15.471 9.546 15.471 9.546-6.257-9.093-5.596-22.053-5.596-22.053 11.19 5.925 17.444 2.304 17.444 2.304-9.055-6.417-12.347-14.976-12.347-14.976 2.144-12.343 16.293-16.293 16.293-16.293s-5.596 0-18.104-8.228c-12.508-8.229-20.736-1.975-28.306 0.987s-21.072 0.132-21.072 0.132l-1.475 3.653 17.445 8.723v9.38l-2.788 14.328-8.567 8.568c11.872 0 5.127 14.354 1.661 20.551h-25.524s30.572 75.045 30.572 100.22c0 25.179-23.66 17.774-29.091 17.774-13.824 0-25.18 16.786-27.648 25.673 0 0 8.393-10.368 35.547-10.368s29.619 14.812 29.619 14.812 2.465-14.812 29.619-14.812c27.15 0 35.548 10.368 35.548 10.368-2.464-8.887-13.819-25.673-27.643-25.673zm-20.687-177.3c3.082 3.084 5.909 3.084 5.909 3.084s-12.527 8.865-13.876-1.799c0-1e-3 4.882-4.369 7.967-1.285z" stroke="#000" stroke-linecap="round" stroke-linejoin="round" stroke-width="3"/>
<path d="m296.23 49.024s-3.951-5.266-18.432-5.266c-14.482 0-21.065 5.431-27.648 1.81-7.963-4.38-0.822-14.318-0.822-14.318s-15.798 4.772-9.381 16.128c2.535 4.485 9.38 6.419 22.546 2.798s21.066-4.938 33.737 1.481v-2.633z" stroke="#000" stroke-linecap="round" stroke-linejoin="round"/>
<path d="m263.15 38.326s1.839-16.179 18.59-15.008c15.365 1.073 18.11 15.338 16.299 29.162 0 0-3.785 24.028-23.37 12.837 0 0 15.1 3.456 19.749-12.507 0 0-0.576-16.596-14.482-19.584-13.906-2.989-16.786 5.1-16.786 5.1z" stroke="#000" stroke-linecap="round" stroke-linejoin="round" stroke-width="3"/>
</g>
<g>
<path d="m1.5 1.5v458.87c0 166.31 134.31 301.13 300 301.13 165.69 0 300-134.82 300-301.13v-458.87h-600z" fill="url(#a)"/>
<path d="m1.5 1.5v458.87c0 166.31 134.31 301.13 300 301.13 165.69 0 300-134.82 300-301.13v-458.87h-600z" fill="none" stroke="#000" stroke-width="3"/>
</g>
</svg>
